to random_in_range [ :min :max ]
[
  sum random sum 1 difference :max :min :min
]


to random_move [ :fdmin :fdmax :ltmin :ltmax ]
[
  repeat 100
  [
    lt random_in_range :ltmin :ltmax
    fd random_in_range :fdmin :fdmax
  ]
]


random_move 5 15 -10 5
